svgs/regular/rv.svg

<svg xmlns="http://www.w3.org/2000/svg" viewBox="0 0 640 512"><!-- Font Awesome Pro 6.0.0-alpha2 by @fontawesome - https://fontawesome.com License - https://fontawesome.com/license (Commercial License) --><path d="M592.125 208H596C620.25 208 640 188.25 640 164C640 91.125 580.875 32 508 32H384C384 14.326 369.674 0 352 0H256C238.326 0 224 14.326 224 32H64C28.75 32 0 60.75 0 96V293.5C0 310.5 6.75 326.75 18.75 338.75L96 416V432C96 476.25 131.75 512 176 512S256 476.25 256 432C256 426.5 255.375 421.25 254.375 416H417.625C416.5 421.25 416 426.5 416 432C416 476.25 451.75 512 496 512S576 476.25 576 432C576 426.5 575.375 421.25 574.375 416H608C625.625 416 640 401.625 640 384V282.375C640 265.375 633.25 249.25 621.25 237.25L592.125 208ZM176 464C158.375 464 144 449.625 144 432S158.375 400 176 400S208 414.375 208 432S193.625 464 176 464ZM368 368H223.625C210.25 358.125 193.875 352 176 352S141.75 358.125 128.375 368H115.75L52.625 304.75C49.625 301.75 47.875 297.75 47.875 293.5V96C47.875 87.25 55.125 80 63.875 80H507.875C552.875 80 589.75 115.5 591.75 160H368V368ZM572.25 256H416V208H517.5C521.75 208 525.875 209.75 529 212.75L572.25 256ZM496 464C478.375 464 464 449.625 464 432S478.375 400 496 400S528 414.375 528 432S513.625 464 496 464ZM592 368H543.625C530.25 358.125 513.875 352 496 352S461.75 358.125 448.375 368H416V304H592V368ZM288 128H128C110.4 128 96 142.4 96 160V224C96 241.6 110.4 256 128 256H288C305.6 256 320 241.6 320 224V160C320 142.4 305.6 128 288 128Z"/></svg>

<svg xmlns="http://www.w3.org/2000/svg" viewBox="0 0 640 512"><!-- Font Awesome Pro 5.15.1 by @fontawesome - https://fontawesome.com License - https://fontawesome.com/license (Commercial License) --><path d="M592.1 208h3.9c24.3 0 44-19.7 44-44 0-72.9-59.1-132-132-132H384V16c0-8.8-7.2-16-16-16H240c-8.8 0-16 7.2-16 16v16H64C28.7 32 0 60.7 0 96v197.5c0 17 6.7 33.3 18.7 45.3L96 416v16c0 44.2 35.8 80 80 80s80-35.8 80-80c0-5.5-.6-10.8-1.6-16h163.2c-1.1 5.2-1.6 10.5-1.6 16 0 44.2 35.8 80 80 80s80-35.8 80-80c0-5.5-.6-10.8-1.6-16H608c17.6 0 32-14.4 32-32V282.4c0-17-6.7-33.2-18.7-45.2L592.1 208zM176 464c-17.6 0-32-14.4-32-32s14.4-32 32-32 32 14.4 32 32-14.4 32-32 32zm192-96H223.6c-13.3-9.9-29.7-16-47.6-16s-34.2 6.1-47.6 16h-12.6l-63.2-63.2c-3-3-4.7-7-4.7-11.3V96c0-8.8 7.2-16 16-16h444c45 0 81.8 35.5 83.9 80H368v208zm204.2-112H416v-48h101.5c4.3 0 8.4 1.7 11.5 4.8l43.2 43.2zM496 464c-17.6 0-32-14.4-32-32s14.4-32 32-32 32 14.4 32 32-14.4 32-32 32zm96-96h-48.4c-13.3-9.9-29.7-16-47.6-16s-34.2 6.1-47.6 16H416v-64h176v64zM304 128H112c-8.8 0-16 7.2-16 16v96c0 8.8 7.2 16 16 16h192c8.8 0 16-7.2 16-16v-96c0-8.8-7.2-16-16-16zm-32 80H144v-32h128v32z"/></svg>
